dist/assets/img/corporulia/edinuses/messages/message_about_2.svg

<svg width="474" height="230" viewBox="0 0 474 230" fill="none" xmlns="http://www.w3.org/2000/svg">
<g filter="url(#filter0_di_1465_67125)">
<path fill-rule="evenodd" clip-rule="evenodd" d="M279.19 171.881C270.237 172.73 261.284 173.579 252.453 174.505C141.369 186.153 40.0023 170.721 40 97.1781C39.9986 50.8211 130.332 34.7794 136.159 33.7928C136.361 33.7587 136.523 33.7267 136.723 33.6819C140.364 32.8642 181.109 24.3113 269.166 29.8607C275.607 30.2666 282.307 30.6133 289.159 30.9678C354.321 34.339 433.214 38.4207 433.214 100.932C433.214 118.303 425.892 131.012 413.506 140.498C410.21 143.022 408.788 147.606 411.548 150.707C413.733 153.162 416.263 155.172 419.19 157.497C419.655 157.867 419.503 158.595 418.917 158.697C412.677 159.789 405.698 156.669 400.706 153.371C398.108 151.655 394.829 151.132 391.935 152.281C362.465 163.984 320.821 167.933 279.19 171.881Z" fill="white"/>
</g>
<defs>
<filter id="filter0_di_1465_67125" x="0" y="0" width="473.215" height="230" filterUnits="userSpaceOnUse" color-interpolation-filters="sRGB">
<feFlood flood-opacity="0" result="BackgroundImageFix"/>
<feColorMatrix in="SourceAlpha" type="matrix" values="0 0 0 0 0 0 0 0 0 0 0 0 0 0 0 0 0 0 127 0" result="hardAlpha"/>
<feOffset dy="12"/>
<feGaussianBlur stdDeviation="20"/>
<feComposite in2="hardAlpha" operator="out"/>
<feColorMatrix type="matrix" values="0 0 0 0 0.909804 0 0 0 0 0.313726 0 0 0 0 0.470588 0 0 0 1 0"/>
<feBlend mode="normal" in2="BackgroundImageFix" result="effect1_dropShadow_1465_67125"/>
<feBlend mode="normal" in="SourceGraphic" in2="effect1_dropShadow_1465_67125" result="shape"/>
<feColorMatrix in="SourceAlpha" type="matrix" values="0 0 0 0 0 0 0 0 0 0 0 0 0 0 0 0 0 0 127 0" result="hardAlpha"/>
<feOffset dy="-4"/>
<feGaussianBlur stdDeviation="4"/>
<feComposite in2="hardAlpha" operator="arithmetic" k2="-1" k3="1"/>
<feColorMatrix type="matrix" values="0 0 0 0 0.909804 0 0 0 0 0.313726 0 0 0 0 0.470588 0 0 0 0.16 0"/>
<feBlend mode="normal" in2="shape" result="effect2_innerShadow_1465_67125"/>
</filter>
</defs>
</svg>

<svg width="474" height="230" viewBox="0 0 474 230" fill="none" xmlns="http://www.w3.org/2000/svg"><g filter="url(#filter0_di_1465_67125)"><path fill-rule="evenodd" clip-rule="evenodd" d="M279.19 171.881c-8.953.849-17.906 1.698-26.737 2.624C141.369 186.153 40.003 170.721 40 97.178c-.001-46.357 90.332-62.399 96.159-63.385.202-.034.364-.066.564-.111 3.641-.818 44.386-9.37 132.443-3.821 6.441.406 13.141.752 19.993 1.107 65.162 3.371 144.055 7.453 144.055 69.964 0 17.371-7.322 30.08-19.708 39.566-3.296 2.524-4.718 7.108-1.958 10.209 2.185 2.455 4.715 4.465 7.642 6.79.465.37.313 1.098-.273 1.2-6.24 1.092-13.219-2.028-18.211-5.326-2.598-1.716-5.877-2.239-8.771-1.09-29.47 11.703-71.114 15.652-112.745 19.6z" fill="#fff"/></g><defs><filter id="filter0_di_1465_67125" x="0" y="0" width="473.215" height="230" filterUnits="userSpaceOnUse" color-interpolation-filters="sRGB"><feFlood flood-opacity="0" result="BackgroundImageFix"/><feColorMatrix in="SourceAlpha" values="0 0 0 0 0 0 0 0 0 0 0 0 0 0 0 0 0 0 127 0" result="hardAlpha"/><feOffset dy="12"/><feGaussianBlur stdDeviation="20"/><feComposite in2="hardAlpha" operator="out"/><feColorMatrix values="0 0 0 0 0.909804 0 0 0 0 0.313726 0 0 0 0 0.470588 0 0 0 1 0"/><feBlend in2="BackgroundImageFix" result="effect1_dropShadow_1465_67125"/><feBlend in="SourceGraphic" in2="effect1_dropShadow_1465_67125" result="shape"/><feColorMatrix in="SourceAlpha" values="0 0 0 0 0 0 0 0 0 0 0 0 0 0 0 0 0 0 127 0" result="hardAlpha"/><feOffset dy="-4"/><feGaussianBlur stdDeviation="4"/><feComposite in2="hardAlpha" operator="arithmetic" k2="-1" k3="1"/><feColorMatrix values="0 0 0 0 0.909804 0 0 0 0 0.313726 0 0 0 0 0.470588 0 0 0 0.16 0"/><feBlend in2="shape" result="effect2_innerShadow_1465_67125"/></filter></defs></svg>
